src/assets/puzzleBulb.svg

<svg width="512" height="512" fill="none" xmlns="http://www.w3.org/2000/svg"><g clip-path="url(#a)"><path d="m307.78 469.823-10 7.5 10 7.5v2.9c0 11.38-9.23 20.6-20.6 20.6h-62.36c-11.37 0-20.6-9.22-20.6-20.6v-2.9l10-7.5-10-7.5v-33.63h103.56v33.63Z" fill="#D8ECFE"/><path d="M254.48 508.323h-29.66c-11.37 0-20.6-9.22-20.6-20.6v-2.9l10-7.5-10-7.5v-33.64h30.01v51.54c0 11.26 9.04 20.42 20.25 20.6Z" fill="#B3DAFE"/><path d="M281.885 306.497c0 14.303-11.582 25.895-25.885 25.895v85.335h-51.781v-25.163c0-9.922-5.661-19.024-14.633-23.275-52.561-24.905-88.928-78.426-88.928-140.449v-.18h51.781v.17c0 14.293 11.592 25.895 25.885 25.895 14.303 0 25.895-11.602 25.895-25.895v-.17H256v51.951c14.303.001 25.885 11.593 25.885 25.886Z" fill="#6FD7A3"/><path d="M224.223 392.565v25.163h-20.004v-25.163c0-9.922-5.661-19.024-14.633-23.275-52.561-24.905-88.928-78.426-88.928-140.449v-.18h20.004v.18c0 62.023 36.368 115.544 88.928 140.449 8.972 4.251 14.633 13.353 14.633 23.275Z" fill="#89DAA4"/><path d="M411.342 228.661v.17c0 62.003-36.328 115.514-88.868 140.429-8.992 4.261-14.693 13.353-14.693 23.305v25.163H256v-85.335c14.303 0 25.885-11.592 25.885-25.895 0-14.293-11.582-25.885-25.885-25.885v-51.951h51.781c.09-14.223 11.652-25.725 25.895-25.725 14.233 0 25.795 11.502 25.885 25.725h51.781v-.001Z" fill="#3DB2FF"/><path d="M411.342 228.661h-51.781c-.09-14.223-11.652-25.725-25.885-25.725-14.243 0-25.805 11.502-25.895 25.725H256V177.05c-14.303 0-25.885-11.592-25.885-25.895 0-14.303 11.582-25.885 25.885-25.885V73.489c85.738 0 155.252 69.455 155.342 155.172Z" fill="#EE9A38"/><path d="M230.115 151.155c0 14.303 11.582 25.895 25.885 25.895v51.611h-51.781v.17c0 14.293-11.592 25.895-25.895 25.895-14.293 0-25.885-11.602-25.885-25.895v-.17h-51.781c.09-85.957 69.384-155.172 155.342-155.172v51.781c-14.303 0-25.885 11.583-25.885 25.885Z" fill="#E5374E"/><path d="M256 73.489v1.27c-76.456 9.752-135.258 74.725-135.338 153.902h-20.004c.09-85.957 69.384-155.172 155.342-155.172Z" fill="#FD4755"/><path d="M204.22 469.823h103.56v15H204.22v-15Z" fill="#EAF6FF"/><path d="M204.22 469.823h30.01v15h-30.01v-15Z" fill="#D8ECFE"/><path d="M256 49.749a7.502 7.502 0 0 1-7.502-7.502V11.179A7.502 7.502 0 0 1 256 3.677a7.502 7.502 0 0 1 7.502 7.502v31.069A7.502 7.502 0 0 1 256 49.749ZM364.708 78.88a7.46 7.46 0 0 1-3.744-1.007 7.502 7.502 0 0 1-2.746-10.247l15.534-26.906a7.502 7.502 0 0 1 12.993 7.501l-15.534 26.906a7.496 7.496 0 0 1-6.503 3.753ZM444.306 158.465a7.5 7.5 0 0 1-3.757-13.999l26.906-15.534a7.5 7.5 0 0 1 10.247 2.746 7.5 7.5 0 0 1-2.746 10.247l-26.906 15.534a7.476 7.476 0 0 1-3.744 1.006ZM40.8 391.429a7.5 7.5 0 0 1-3.757-13.999l26.907-15.534a7.501 7.501 0 1 1 7.5 12.993l-26.905 15.534a7.476 7.476 0 0 1-3.744 1.006ZM147.292 78.88a7.497 7.497 0 0 1-6.503-3.752l-15.534-26.906a7.5 7.5 0 0 1 2.746-10.247 7.5 7.5 0 0 1 10.247 2.746l15.534 26.906a7.5 7.5 0 0 1-6.49 11.253ZM67.694 158.465a7.46 7.46 0 0 1-3.744-1.007l-26.906-15.534a7.502 7.502 0 0 1-2.746-10.247 7.5 7.5 0 0 1 10.247-2.746l26.906 15.534a7.502 7.502 0 0 1-3.757 14ZM471.199 391.429a7.457 7.457 0 0 1-3.744-1.007l-26.906-15.534a7.502 7.502 0 0 1 7.501-12.993l26.906 15.534a7.502 7.502 0 0 1-3.757 14ZM38.57 267.178H7.502a7.502 7.502 0 0 1 0-15.004H38.57a7.502 7.502 0 0 1 0 15.004ZM504.498 267.178H473.43a7.502 7.502 0 0 1 0-15.004h31.069a7.502 7.502 0 1 1-.001 15.004Z" fill="#FFE177"/><path d="M318.137 446.089H193.863c-8.579 0-15.534-6.955-15.534-15.534s6.955-15.534 15.534-15.534h124.275c8.579 0 15.534 6.955 15.534 15.534s-6.955 15.534-15.535 15.534Z" fill="#EAF6FF"/><path d="M223.873 446.086h-30.006c-8.582 0-15.543-6.951-15.543-15.533 0-4.291 1.74-8.172 4.551-10.982a15.507 15.507 0 0 1 10.992-4.551h30.006a15.5 15.5 0 0 0-10.992 4.551 15.483 15.483 0 0 0-4.551 10.982c0 8.582 6.962 15.533 15.543 15.533Z" fill="#D8ECFE"/></g><defs><clipPath id="a"><path fill="#fff" d="M0 0h512v512H0z"/></clipPath></defs></svg>

<svg width="512" height="512" viewBox="0 0 512 512" fill="none" xmlns="http://www.w3.org/2000/svg">
<g clip-path="url(#clip0)">
<path d="M307.78 469.823L297.78 477.323L307.78 484.823V487.723C307.78 499.103 298.55 508.323 287.18 508.323H224.82C213.45 508.323 204.22 499.103 204.22 487.723V484.823L214.22 477.323L204.22 469.823V436.193H307.78V469.823Z" fill="#D8ECFE"/>
<path d="M254.48 508.323H224.82C213.45 508.323 204.22 499.103 204.22 487.723V484.823L214.22 477.323L204.22 469.823V436.183H234.23V487.723C234.23 498.983 243.27 508.143 254.48 508.323V508.323Z" fill="#B3DAFE"/>
<path d="M281.885 306.497C281.885 320.8 270.303 332.392 256 332.392V417.727H204.219V392.564C204.219 382.642 198.558 373.54 189.586 369.289C137.025 344.384 100.658 290.863 100.658 228.84V228.66H152.439V228.83C152.439 243.123 164.031 254.725 178.324 254.725C192.627 254.725 204.219 243.123 204.219 228.83V228.66H256V280.611C270.303 280.612 281.885 292.204 281.885 306.497Z" fill="#6FD7A3"/>
<path d="M224.223 392.565V417.728H204.219V392.565C204.219 382.643 198.558 373.541 189.586 369.29C137.025 344.385 100.658 290.864 100.658 228.841V228.661H120.662V228.841C120.662 290.864 157.03 344.385 209.59 369.29C218.562 373.541 224.223 382.643 224.223 392.565V392.565Z" fill="#89DAA4"/>
<path d="M411.342 228.661V228.831C411.342 290.834 375.014 344.345 322.474 369.26C313.482 373.521 307.781 382.613 307.781 392.565V417.728H256V332.393C270.303 332.393 281.885 320.801 281.885 306.498C281.885 292.205 270.303 280.613 256 280.613V228.662H307.781C307.871 214.439 319.433 202.937 333.676 202.937C347.909 202.937 359.471 214.439 359.561 228.662H411.342V228.661Z" fill="#3DB2FF"/>
<path d="M411.342 228.661H359.561C359.471 214.438 347.909 202.936 333.676 202.936C319.433 202.936 307.871 214.438 307.781 228.661H256V177.05C241.697 177.05 230.115 165.458 230.115 151.155C230.115 136.852 241.697 125.27 256 125.27V73.489C341.738 73.489 411.252 142.944 411.342 228.661Z" fill="#EE9A38"/>
<path d="M230.115 151.155C230.115 165.458 241.697 177.05 256 177.05V228.661H204.219V228.831C204.219 243.124 192.627 254.726 178.324 254.726C164.031 254.726 152.439 243.124 152.439 228.831V228.661H100.658C100.748 142.704 170.042 73.489 256 73.489V125.27C241.697 125.27 230.115 136.853 230.115 151.155Z" fill="#E5374E"/>
<path d="M256 73.489V74.759C179.544 84.511 120.742 149.484 120.662 228.661H100.658C100.748 142.704 170.042 73.489 256 73.489Z" fill="#FD4755"/>
<path d="M204.22 469.823H307.78V484.823H204.22V469.823Z" fill="#EAF6FF"/>
<path d="M204.22 469.823H234.23V484.823H204.22V469.823Z" fill="#D8ECFE"/>
<path d="M256 49.749C251.857 49.749 248.498 46.39 248.498 42.247V11.179C248.498 7.036 251.856 3.677 256 3.677C260.144 3.677 263.502 7.036 263.502 11.179V42.248C263.502 46.39 260.143 49.749 256 49.749V49.749Z" fill="#FFE177"/>
<path d="M364.708 78.8799C363.435 78.8799 362.146 78.5559 360.964 77.8729C357.376 75.8019 356.147 71.2139 358.218 67.6259L373.752 40.7199C375.823 37.1319 380.409 35.9009 383.999 37.9739C387.587 40.0449 388.816 44.6329 386.745 48.2209L371.211 75.1269C369.822 77.5349 367.3 78.8799 364.708 78.8799V78.8799Z" fill="#FFE177"/>
<path d="M444.306 158.465C441.714 158.465 439.192 157.12 437.803 154.713C435.731 151.125 436.961 146.537 440.549 144.466L467.455 128.932C471.041 126.861 475.632 128.089 477.702 131.678C479.774 135.266 478.544 139.854 474.956 141.925L448.05 157.459C446.869 158.14 445.579 158.465 444.306 158.465Z" fill="#FFE177"/>
<path d="M40.8009 391.429C38.2089 391.429 35.688 390.084 34.298 387.677C32.226 384.089 33.4559 379.501 37.0439 377.43L63.95 361.896C67.536 359.825 72.1249 361.053 74.1969 364.642C76.2689 368.23 75.0389 372.818 71.4509 374.889L44.5449 390.423C43.3639 391.104 42.0739 391.429 40.8009 391.429V391.429Z" fill="#FFE177"/>
<path d="M147.292 78.8799C144.7 78.8799 142.178 77.5349 140.789 75.1279L125.255 48.2219C123.183 44.6339 124.413 40.0459 128.001 37.9749C131.587 35.9019 136.177 37.1319 138.248 40.7209L153.782 67.6269C155.854 71.2149 154.624 75.8029 151.036 77.8739C149.855 78.5559 148.565 78.8799 147.292 78.8799V78.8799Z" fill="#FFE177"/>
<path d="M67.694 158.465C66.421 158.465 65.132 158.141 63.95 157.458L37.044 141.924C33.456 139.853 32.227 135.265 34.298 131.677C36.369 128.088 40.955 126.859 44.545 128.931L71.451 144.465C75.039 146.536 76.268 151.124 74.197 154.712C72.808 157.119 70.286 158.465 67.694 158.465V158.465Z" fill="#FFE177"/>
<path d="M471.199 391.429C469.926 391.429 468.636 391.105 467.455 390.422L440.549 374.888C436.961 372.816 435.732 368.228 437.803 364.641C439.874 361.052 444.464 359.824 448.05 361.895L474.956 377.429C478.544 379.501 479.773 384.089 477.702 387.676C476.313 390.083 473.791 391.429 471.199 391.429Z" fill="#FFE177"/>
<path d="M38.57 267.178H7.502C3.359 267.178 0 263.819 0 259.676C0 255.533 3.358 252.174 7.502 252.174H38.57C42.713 252.174 46.072 255.533 46.072 259.676C46.072 263.819 42.714 267.178 38.57 267.178Z" fill="#FFE177"/>
<path d="M504.498 267.178H473.43C469.287 267.178 465.928 263.819 465.928 259.676C465.928 255.533 469.286 252.174 473.43 252.174H504.499C508.642 252.174 512.001 255.533 512.001 259.676C512.001 263.819 508.642 267.178 504.498 267.178Z" fill="#FFE177"/>
<path d="M318.137 446.089H193.863C185.284 446.089 178.329 439.134 178.329 430.555C178.329 421.976 185.284 415.021 193.863 415.021H318.138C326.717 415.021 333.672 421.976 333.672 430.555C333.672 439.134 326.717 446.089 318.137 446.089Z" fill="#EAF6FF"/>
<path d="M223.873 446.086H193.867C185.285 446.086 178.324 439.135 178.324 430.553C178.324 426.262 180.064 422.381 182.875 419.571C185.686 416.761 189.576 415.02 193.867 415.02H223.873C219.582 415.02 215.691 416.76 212.881 419.571C210.071 422.382 208.33 426.262 208.33 430.553C208.33 439.135 215.292 446.086 223.873 446.086Z" fill="#D8ECFE"/>
</g>
<defs>
<clipPath id="clip0">
<rect width="512" height="512" fill="white"/>
</clipPath>
</defs>
</svg>
